en/_assets/websql/failed.svg

<svg xmlns="http://www.w3.org/2000/svg" width="16" height="16" fill="none" viewBox="0 0 16 16">
    <g clip-path="url(#clip0_1_16)">
        <path fill="#EA0706" d="M8 .5C3.86.5.5 3.86.5 8c0 4.14 3.36 7.5 7.5 7.5 4.14 0 7.5-3.36 7.5-7.5C15.5 3.86 12.14.5 8 .5Zm2.53 8.97c.29.29.29.77 0 1.06-.15.15-.34.22-.53.22s-.38-.07-.53-.22L8 9.06l-1.47 1.47c-.15.15-.34.22-.53.22s-.38-.07-.53-.22a.754.754 0 0 1 0-1.06L6.94 8 5.47 6.53a.754.754 0 0 1 0-1.06c.29-.29.77-.29 1.06 0L8 6.94l1.47-1.47c.29-.29.77-.29 1.06 0 .29.29.29.77 0 1.06L9.06 8l1.47 1.47Z"/>
    </g>
    <defs>
        <clipPath id="clip0_1_16">
            <path fill="#fff" d="M0 0h16v16H0z"/>
        </clipPath>
    </defs>
</svg>

<svg width="16" height="16" viewBox="0 0 16 16" fill="none" xmlns="http://www.w3.org/2000/svg">
<g clip-path="url(#clip0_1_16)">
<path d="M8 0.5C3.86 0.5 0.5 3.86 0.5 8C0.5 12.14 3.86 15.5 8 15.5C12.14 15.5 15.5 12.14 15.5 8C15.5 3.86 12.14 0.5 8 0.5ZM10.53 9.47C10.82 9.76 10.82 10.24 10.53 10.53C10.38 10.68 10.19 10.75 10 10.75C9.81 10.75 9.62 10.68 9.47 10.53L8 9.06L6.53 10.53C6.38 10.68 6.19 10.75 6 10.75C5.81 10.75 5.62 10.68 5.47 10.53C5.18 10.24 5.18 9.76 5.47 9.47L6.94 8L5.47 6.53C5.18 6.24 5.18 5.76 5.47 5.47C5.76 5.18 6.24 5.18 6.53 5.47L8 6.94L9.47 5.47C9.76 5.18 10.24 5.18 10.53 5.47C10.82 5.76 10.82 6.24 10.53 6.53L9.06 8L10.53 9.47Z" fill="#EA0706"/>
</g>
<defs>
<clipPath id="clip0_1_16">
<rect width="16" height="16" fill="white"/>
</clipPath>
</defs>
</svg>
